**kern	**kern	**kern	**kern
*staff4	*staff3	*staff2	*staff1
=1-	=1-	=1-	=1-
*clefF4	*clefGv2	*clefGv2	*clefG2
*k[b-]	*k[b-]	*k[b-]	*k[b-]
*met(C|)	*met(C|)	*met(C|)	*met(C|)
*M2/2	*M2/2	*M2/2	*M2/2
0r	0r	0r	0G
=2	=2	=2	=2
0r	0r	0r	1G
.	.	.	1d
=3	=3	=3	=3
0r	0r	0G	1d
.	.	.	2r
.	.	.	[2g/
=4	=4	=4	=4
0r	0r	1G	2g/]
.	.	.	4f/
.	.	.	4e/
.	.	1d	2f/
.	.	.	[2B-/
=5	=5	=5	=5
!!linebreak:default
0r	0G	1d	2B-/]
.	.	.	1b-
.	.	2r	.
.	.	[2g\	4a/
.	.	.	4g/
=6	=6	=6	=6
0r	1G	2g\]	1b-
.	.	4f\	.
.	.	4e\	.
.	1d	2f\	2a/
.	.	[2B-\	[2b-\
=7	=7	=7	=7
0GG	1d	2B-\]	4b-\]
.	.	.	4a/
.	.	1B-	1g
.	2r	.	.
.	[2G/	4A/	4f/
.	.	4G/	4e/
=8	=8	=8	=8
1GG	2G/]	1B-	[0d
.	4F/	.	.
.	4E/	.	.
1D	2F/	2A/	.
.	[2BB-/	[2d\	.
=9	=9	=9	=9
1D	4BB-/]	2d\]	0d]
.	4C/	.	.
.	4D/	4c\	.
.	4E/	4B-\	.
2r	2F/	2A/	.
[2G\	2G/	[2B-\	.
=10	=10	=10	=10
!!linebreak:default
2G\]	0D	2B-\]	0r
4F\	.	4A/	.
4E\	.	4G/	.
2F\	.	2A/	.
[2BB-/	.	[2B-\	.
=11	=11	=11	=11
2BB-/]	1r	4B-\]	0r
.	.	4A/	.
1B-	.	1G	.
.	[1d	.	.
4A\	.	4F/	.
4G\	.	4E/	.
=12	=12	=12	=12
1B-	1d]	2D/	0r
.	.	1d	.
1A	1e	.	.
.	.	2c#\	.
=13	=13	=13	=13
2F\	2.f\	[0d	0r
[2B-\	.	.	.
.	4e\	.	.
4B-\]	4d\	.	.
4A\	4c\	.	.
[2G\	[2B-\	.	.
=14	=14	=14	=14
2G\]	2B-\]	0d]	0r
4F\	4A/	.	.
4E\	4G/	.	.
2F\	4A/	.	.
.	4G/	.	.
2G\	[2B-\	.	.
=15	=15	=15	=15
!!pagebreak:default
0D	2B-\]	1r	1.f
.	4A/	.	.
.	4G/	.	.
.	[1A	1d	.
.	.	.	4e/
.	.	.	4d/
=16	=16	=16	=16
0r	1A]	1c	1e
.	2r	1d	2d/
.	[2D/	.	[2f/
=17	=17	=17	=17
0r	4D/]	[0f	4f/]
.	4E/	.	4g/
.	4F/	.	4a/
.	4G/	.	4b-\
.	2A/	.	2cc\
.	2B-\	.	2dd\
=18	=18	=18	=18
0r	2A/	1f]	2cc\
.	1B-	.	1dd
.	.	1f	.
.	4A/	.	4cc\
.	4G/	.	4b-\
=19	=19	=19	=19
1r	0F 0d	1.f	1.a
1D	.	.	.
.	.	4e\	2f/
.	.	4d\	.
=20	=20	=20	=20
!!linebreak:default
1C	1r	2e\	2g/
.	.	[2A/	2a/
1D	1d	4A/]	2f/
.	.	4F/	.
.	.	2B-\	2d/
=21	=21	=21	=21
[0F	1c	1A	0a
.	1d	1D	.
=22	=22	=22	=22
1F]	1.f	0r	2.a/
.	.	.	4g/
1F	.	.	4a/
.	.	.	4b-\
.	2e\	.	[2cc\
=23	=23	=23	=23
0F	1d	1r	4cc\]
.	.	.	4b-\
.	.	.	1b-
.	1c	1F	.
.	.	.	2a/
=24	=24	=24	=24
1r	0B-	2.G/	2.g/
.	.	4A/	4f/
1BB-	.	4B-\	2d/
.	.	4c\	.
.	.	2d\	2f/
=25	=25	=25	=25
!!linebreak:default
1C	1r	2c\	1e
.	.	1A	.
1D	1F	.	1d
.	.	[2B-\	.
=26	=26	=26	=26
1E-	1G	4B-\]	0r
.	.	4A/	.
.	.	4G/	.
.	.	4F/	.
2C/	1A	2E/	.
[2D\	.	2D/	.
=27	=27	=27	=27
4D\]	1B-	1d	0r
4GG/	.	.	.
1GG	.	.	.
.	1G	2r	.
[2G\	.	2B-\	.
=28	=28	=28	=28
2G\]	1A	1c	1r
4F\	.	.	.
4E\	.	.	.
2F\	1D	1d	1f
2D\	.	.	.
=29	=29	=29	=29
1C	0r	1e-	1g
1r	.	2c\	1a
.	.	[2d\	.
=30	=30	=30	=30
!!linebreak:default
0r	0r	4d\]	1b-
.	.	4G/	.
.	.	1G	.
.	.	.	1g
.	.	[2g\	.
=31	=31	=31	=31
1.D	1r	2g\]	1a
.	.	4f\	.
.	.	4e\	.
.	[1A	1f	1d
2D\	.	.	.
=32	=32	=32	=32
1D	2A/]	0r	0r
.	2A/	.	.
1D	1A	.	.
=33	=33	=33	=33
2.C/	1A	0r	0r
4D\	.	.	.
4E\	2.G/	.	.
4F\	.	.	.
[2G\	.	.	.
.	4A/	.	.
=34	=34	=34	=34
4G\]	4B-\	0r	0r
4F\	4c\	.	.
2D\	1d	.	.
1E	.	.	.
.	2c#\	.	.
=35	=35	=35	=35
!!pagebreak:default
0D	0d	1r	0r
.	.	[1d	.
=36	=36	=36	=36
0r	0r	2d\]	1.a
.	.	2d\	.
.	.	1d	.
.	.	.	2a/
=37	=37	=37	=37
0r	0r	1d	1a
.	.	[1c	1a
=38	=38	=38	=38
0r	0r	2c\]	1.g
.	.	4B-\	.
.	.	4A/	.
.	.	2.G/	.
.	.	.	4f/
.	.	4A/	4e/
=39	=39	=39	=39
0r	0r	4B-\	2d/
.	.	4c\	.
.	.	1d	2f/
.	.	.	1e
.	.	2c#\	.
=40	=40	=40	=40
!!linebreak:default
0BB-	0r	2d\	2.d/
.	.	[2f\	.
.	.	.	4e/
.	.	4f\]	2f/
.	.	4e\	.
.	.	2d\	[2B-/
=41	=41	=41	=41
1FF	0r	1c	2B-/]
.	.	.	2A/
1GG	.	2.B-\	2B-/
.	.	.	2G/
.	.	4A/	.
=42	=42	=42	=42
2.GG/	0B-	2.G/	1.d
4AA/	.	4F/	.
4BB-/	.	1D	.
4C/	.	.	.
[2D\	.	.	4c/
.	.	.	4B-/
=43	=43	=43	=43
4D\]	1F	0r	1A
4E\	.	.	.
4F\	.	.	.
4D\	.	.	.
2E\	1G	.	1G
2C/	.	.	.
=44	=44	=44	=44
2GG/	2.G/	0r	0B-
1G	.	.	.
.	4A/	.	.
.	4B-\	.	.
.	4c\	.	.
4F\	[2d\	.	.
4E\	.	.	.
=45	=45	=45	=45
!!linebreak:default
1D	4d\]	0r	1F
.	4e\	.	.
.	4f\	.	.
.	4d\	.	.
1C	1e	.	1G
=46	=46	=46	=46
2GG/	1d	0B-	2.G/
1G	.	.	.
.	.	.	4A/
.	1G	.	4B-/
.	.	.	4c/
4F\	.	.	[2d/
4E\	.	.	.
=47	=47	=47	=47
1D	1A	1F	4d/]
.	.	.	4e/
.	.	.	4f/
.	.	.	4d/
1C	1c	1G	1e
=48	=48	=48	=48
0r	0B-	2.G/	2.d/
.	.	4A/	4c/
.	.	4B-\	4d/
.	.	4c\	4e/
.	.	[2d\	4f/
.	.	.	4g/
=49	=49	=49	=49
0r	0r	4d\]	2a/
.	.	4e\	.
.	.	4f\	1dd
.	.	4d\	.
.	.	1e	.
.	.	.	2cc\
=50	=50	=50	=50
!!linebreak:default
1G	1r	0d	2b-\
.	.	.	4a/
.	.	.	4g/
2D\	1d	.	1f
[2F\	.	.	.
=51	=51	=51	=51
2F\]	2c\	0r	1r
2G\	2B-\	.	.
1E	1c	.	1g
=52	=52	=52	=52
0D	0d	1r	2f/
.	.	.	[2b-\
.	.	1d	4b-\]
.	.	.	4a/
.	.	.	[2a/
=53	=53	=53	=53
0r	1r	2c\	2a/]
.	.	2B-\	4g/
.	.	.	4f/
.	1A	1c	1e
=54	=54	=54	=54
1r	2B-\	0d	0d
.	2G/	.	.
1D	2B-\	.	.
.	[2A/	.	.
=55	=55	=55	=55
!!pagebreak:default
2C/	2A/]	0r	0r
2BB-/	4G/	.	.
.	4F/	.	.
1C	[1E	.	.
=56	=56	=56	=56
0GG	2E/]	1r	1r
.	2D/	.	.
.	1G	1d	1dd
=57	=57	=57	=57
0r	2r	2e-\	2cc\
.	2G/	2d\	2b-\
.	4A/	[1c	1cc
.	4B-\	.	.
.	4c\	.	.
.	4d\	.	.
=58	=58	=58	=58
1C	2e\	2c\]	0g
.	1f	4B-\	.
.	.	4A/	.
1C	.	1G	.
.	2e\	.	.
=59	=59	=59	=59
2.D\	2.f\	1F	0r
4C/	4e\	.	.
4D\	4d\	1r	.
4E\	4c\	.	.
[2F\	2d\	.	.
=60	=60	=60	=60
!!linebreak:default
2F\]	4c\	1c	0r
.	4F/	.	.
4E\	1B-	.	.
4D\	.	.	.
1C	.	1c	.
.	2A/	.	.
=61	=61	=61	=61
0BB-	0B-	2.d\	2r
.	.	.	2d/
.	.	4c\	.
.	.	4d\	2.f/
.	.	4e\	.
.	.	[2f\	.
.	.	.	4g/
=62	=62	=62	=62
1r	0F	2f\]	2a/
.	.	4e\	[2b-\
.	.	4d\	.
1F	.	1c	4b-\]
.	.	.	4a/
.	.	.	4a/
.	.	.	4g/
=63	=63	=63	=63
1G	1r	1.B-	0b-
1G	1B-	.	.
.	.	4A/	.
.	.	4G/	.
=64	=64	=64	=64
1.A	1.c	4F/	0r
.	.	4G/	.
.	.	4A/	.
.	.	4B-\	.
.	.	4c\	.
.	.	4d\	.
2G\	2B-\	[2e\	.
=65	=65	=65	=65
!!linebreak:default
1F	1A	4e\]	0r
.	.	4d\	.
.	.	1d	.
1E	1G	.	.
.	.	2c#\	.
=66	=66	=66	=66
2.D\	1F	1d	1r
4C/	.	.	.
1BB-	1G	1D	1b-
=67	=67	=67	=67
1.AA	2.A/	2E/	1.cc
.	.	2F/	.
.	4B-\	.	.
.	2c\	2C/	.
2GG/	[2d\	[2G/	2b-\
=68	=68	=68	=68
1D	4d\]	2G/]	1a
.	4c\	.	.
.	2A/	2F#/	.
2r	2B-\	2G/	1g
2C/	2c\	[2e-\	.
=69	=69	=69	=69
2D\	1A	4e-\]	1f
.	.	4d\	.
2F\	.	1d	.
1E	1G	.	1g
.	.	2c\	.
=70	=70	=70	=70
!!linebreak:default
1D	2r	1f	1a
.	2d\	.	.
1A	2c\	2e\	2r
.	2A/	2c\	2cc\
=71	=71	=71	=71
2r	1B-	2d\	2b-\
2G\	.	[2e\	2g/
2F\	1A	4e\]	1a
.	.	4d\	.
2D\	.	[2d\	.
=72	=72	=72	=72
1E	2r	2d\]	2.g/
.	2G/	2c#\	.
.	.	.	4e/
1D	2A/	2d\	4f/
.	.	.	4g/
.	2F/	2f\	[2a/
=73	=73	=73	=73
1r	2G/	2e\	4a/]
.	.	.	4g/
.	2B-\	[2d\	1g
1D	1A	4d\]	.
.	.	4c\	.
.	.	2d\	2f#/
=74	=74	=74	=74
1.E-	0G	2B-\	0g
.	.	2G/	.
.	.	2.c\	.
2D\	.	.	.
.	.	4B-\	.
=75	=75	=75	=75
!!pagebreak:default
2C/	1r	4A/	0r
.	.	4G/	.
2BB-/	.	1G	.
1AA	1A	.	.
.	.	2F#/	.
=76	=76	=76	=76
0GG	1.B-	1G	2r
.	.	.	2d/
.	.	2.d\	2.g/
.	2A/	.	.
.	.	4c\	4f/
=77	=77	=77	=77
1r	2G/	2B-\	4e/
.	.	.	4d/
.	2F/	2A/	1d
1G	1E	2G/	.
.	.	4F/	2c#/
.	.	4E/	.
=78	=78	=78	=78
2A\	1D	1F	1d
1F	.	.	.
.	1d	1f	1a
4E\	.	.	.
4D\	.	.	.
=79	=79	=79	=79
0C	1.e-	1.g	2r
.	.	.	2g/
.	.	.	2.cc\
.	2d\	2f\	.
.	.	.	4b-\
=80	=80	=80	=80
!!linebreak:default
1r	2c\	2e\	4a/
.	.	.	4g/
.	2B-\	[2d\	1g
1D	1A	4d\]	.
.	.	4c\	.
.	.	2d\	2f#/
=81	=81	=81	=81
1.E-	0G	2B-\	0g
.	.	2G/	.
.	.	2.c\	.
2D\	.	.	.
.	.	4B-\	.
=82	=82	=82	=82
2C/	1r	4A/	1r
.	.	4G/	.
2BB-/	.	1G	.
1AA	1c	.	1a
.	.	2F#/	.
=83	=83	=83	=83
2GG/	1B-	[0G	1.b-
1G	.	.	.
.	[1G	.	.
2F\	.	.	2a/
=84	=84	=84	=84
2E\	2G/]	0G_	2g/
2D\	4A/	.	2f/
.	4B-\	.	.
2.C/	1c	.	1e
4BB-/	.	.	.
=85	=85	=85	=85
!!linebreak:default
0GG	0B-	0G]	0d
==	==	==	==
*-	*-	*-	*-
